build/images/icon-tel.svg

<svg width="26" height="26" viewBox="0 0 26 26" fill="none" xmlns="http://www.w3.org/2000/svg">
<path d="M25.3028 19.268L21.2023 15.1478C20.2717 14.2072 18.761 14.2054 17.8282 15.1438C17.8268 15.1452 17.8256 15.1465 17.8242 15.1478L15.4748 17.5169C15.2971 17.6966 15.017 17.7214 14.8109 17.5758C13.525 16.6696 12.3213 15.6503 11.2139 14.5298C10.222 13.5319 9.30963 12.4569 8.48504 11.3146C8.33558 11.1094 8.3573 10.8249 8.53608 10.6451L10.9438 8.21716C11.8734 7.27797 11.8734 5.75722 10.9438 4.81803L6.84338 0.683184C5.89848 -0.227728 4.41013 -0.227728 3.46524 0.683184L2.16653 1.99278C0.205181 3.94833 -0.495003 6.85204 0.357034 9.49735C0.992835 11.4327 1.89156 13.2699 3.02746 14.9565C4.05008 16.5028 5.22327 17.9422 6.52967 19.2533C7.94996 20.6958 9.52322 21.9762 11.2211 23.0718C13.0877 24.3 15.1371 25.219 17.2916 25.794C17.8455 25.9317 18.4139 26.0009 18.9843 26C20.9398 25.9879 22.8107 25.1942 24.1866 23.7928L25.3029 22.6671C26.2324 21.728 26.2324 20.2072 25.3028 19.268ZM24.2696 21.6637C24.2686 21.6646 24.2677 21.6656 24.2667 21.6666L24.2739 21.6445L23.1576 22.7702C21.7233 24.2348 19.6344 24.8374 17.6489 24.3594C15.6486 23.8195 13.747 22.9601 12.0162 21.8138C10.4083 20.7775 8.91811 19.5661 7.57281 18.2012C6.33498 16.9622 5.22293 15.6016 4.25298 14.1399C3.19206 12.5671 2.35233 10.8538 1.75766 9.04858C1.07594 6.92791 1.64086 4.60093 3.21694 3.03759L4.51564 1.728C4.87672 1.36225 5.46345 1.36096 5.82606 1.72506C5.827 1.72601 5.82803 1.72696 5.82897 1.728L9.92944 5.86284C10.2921 6.22695 10.2934 6.81859 9.93235 7.18424C9.93141 7.18519 9.93047 7.18614 9.92944 7.18718L7.52168 9.61513C6.83081 10.3042 6.74394 11.3992 7.31741 12.1903C8.18826 13.3954 9.15196 14.5295 10.1995 15.5821C11.3673 16.7648 12.637 17.8408 13.9935 18.7973C14.7773 19.3486 15.8399 19.2556 16.518 18.5766L18.8454 16.1927C19.2065 15.827 19.7932 15.8257 20.1559 16.1898C20.1568 16.1908 20.1577 16.1917 20.1588 16.1927L24.2666 20.3423C24.6294 20.7064 24.6307 21.2979 24.2696 21.6637Z" fill="#74CA5E"/>
</svg>

<svg width="26" height="26" fill="none" xmlns="http://www.w3.org/2000/svg"><path d="M25.303 19.268l-4.1-4.12a2.372 2.372 0 00-3.375-.004l-.004.004-2.35 2.369a.515.515 0 01-.663.059 26.605 26.605 0 01-3.597-3.046 26.865 26.865 0 01-2.729-3.215.518.518 0 01.051-.67l2.408-2.428a2.42 2.42 0 000-3.399L6.844.683a2.43 2.43 0 00-3.379 0l-1.298 1.31a7.4 7.4 0 00-1.81 7.504 22.147 22.147 0 002.67 5.46 27.86 27.86 0 003.503 4.296 27.536 27.536 0 004.691 3.819 20.803 20.803 0 006.07 2.722 6.97 6.97 0 001.693.206 7.354 7.354 0 005.203-2.207l1.116-1.126a2.42 2.42 0 000-3.399zm-1.033 2.396l-.003.003.007-.023-1.116 1.126a5.805 5.805 0 01-5.51 1.59c-2-.54-3.901-1.4-5.632-2.546A26.068 26.068 0 017.573 18.2a26.395 26.395 0 01-3.32-4.061 20.668 20.668 0 01-2.495-5.091 5.92 5.92 0 011.459-6.011l1.299-1.31a.921.921 0 011.31-.003l.003.003 4.1 4.135a.94.94 0 010 1.324L7.522 9.615a1.991 1.991 0 00-.205 2.575 28.338 28.338 0 002.883 3.392 28.042 28.042 0 003.793 3.215 1.965 1.965 0 002.525-.22l2.327-2.384a.921.921 0 011.314 0l4.108 4.15a.94.94 0 01.003 1.32z" fill="#74CA5E"/></svg>
